X: 16
T: Merrily Trip it
%R: reel
B: "Twenty Four Country Dances with Figures for the Year 1809", Button & Whitaker, p.8 #2
F: http://www.vwml.org/browse/browse-collections-dance-tune-books/browse-button1809
Z: 2014 John Chambers <jc:trillian.mit.edu>
M: 2/4
L: 1/16
K: D
% - - - - - - - - - - - - - - - - - - - - - - - - - - - - -
|:\
(fg)(ef) (d2A2) | (d2A2)(d2A2) | (d2ef) (g2f2) | ({f}edef) (egfe) |
(fg)(ef) (d2A2) | (d2A2)(d2A2) | (d2ef) (g2f2) | ({f}edef) d2z2 H:|
(ABcd) (efge) | (afed) (afed) | (cdef) (efga) | (fg)(ef) d2z2 |
(ABcd) (efge) | (afed) (afed) | (B^def) (gabg) | (fgfe) d2"_D.C."z2 |]
% - - - - - - - - - - Dance description - - - - - - - - - -
%%begintext align
%% Cast off 1 Cu: up again, down the mid up
%% again, Allemande.
%%endtext

%%sep 1 1 500
%%sep 1 1 500
